static/img/kroki/1a4a2d0b4792f608f5519f7832b3632b.svg

<?xml version="1.0" encoding="us-ascii" standalone="no"?><svg xmlns="http://www.w3.org/2000/svg" xmlns:xlink="http://www.w3.org/1999/xlink" contentStyleType="text/css" height="352px" preserveAspectRatio="none" style="width:313px;height:352px;" version="1.1" viewBox="0 0 313 352" width="313px" zoomAndPan="magnify"><defs/><g><!--class aws_backup_copy_job--><g id="elem_aws_backup_copy_job"><rect codeLine="23" fill="#3D176E" height="39.7891" id="aws_backup_copy_job" rx="2.5" ry="2.5" style="stroke:#000D19;stroke-width:0.5;" width="224" x="18" y="106.79"/><ellipse cx="33" cy="126.6845" fill="#ADD1B2" rx="11" ry="11" style="stroke:#181818;stroke-width:1.0;"/><path d="M35.9688,132.3252 Q35.3906,132.622 34.75,132.7627 Q34.1094,132.9189 33.4063,132.9189 Q30.9063,132.9189 29.5781,131.2783 Q28.2656,129.622 28.2656,126.497 Q28.2656,123.372 29.5781,121.7158 Q30.9063,120.0595 33.4063,120.0595 Q34.1094,120.0595 34.75,120.2158 Q35.4063,120.372 35.9688,120.6689 L35.9688,123.3877 Q35.3438,122.8095 34.75,122.5439 Q34.1563,122.2627 33.5313,122.2627 Q32.1875,122.2627 31.5,123.3408 Q30.8125,124.4033 30.8125,126.497 Q30.8125,128.5908 31.5,129.6689 Q32.1875,130.7314 33.5313,130.7314 Q34.1563,130.7314 34.75,130.4658 Q35.3438,130.1845 35.9688,129.6064 L35.9688,132.3252 Z " fill="#000000"/><text fill="#D9B8FF" font-family="Helvetica" font-size="17" lengthAdjust="spacing" textLength="182" x="52" y="132.5698">aws_backup_copy_job</text></g><!--class aws_backup_plan--><g id="elem_aws_backup_plan"><rect codeLine="26" fill="#3D176E" height="39.7891" id="aws_backup_plan" rx="2.5" ry="2.5" style="stroke:#000D19;stroke-width:0.5;" width="188" x="118" y="7"/><ellipse cx="133" cy="26.8945" fill="#ADD1B2" rx="11" ry="11" style="stroke:#181818;stroke-width:1.0;"/><path d="M135.9688,32.5352 Q135.3906,32.832 134.75,32.9727 Q134.1094,33.1289 133.4063,33.1289 Q130.9063,33.1289 129.5781,31.4883 Q128.2656,29.832 128.2656,26.707 Q128.2656,23.582 129.5781,21.9258 Q130.9063,20.2695 133.4063,20.2695 Q134.1094,20.2695 134.75,20.4258 Q135.4063,20.582 135.9688,20.8789 L135.9688,23.5977 Q135.3438,23.0195 134.75,22.7539 Q134.1563,22.4727 133.5313,22.4727 Q132.1875,22.4727 131.5,23.5508 Q130.8125,24.6133 130.8125,26.707 Q130.8125,28.8008 131.5,29.8789 Q132.1875,30.9414 133.5313,30.9414 Q134.1563,30.9414 134.75,30.6758 Q135.3438,30.3945 135.9688,29.8164 L135.9688,32.5352 Z " fill="#000000"/><text fill="#D9B8FF" font-family="Helvetica" font-size="17" lengthAdjust="spacing" textLength="146" x="152" y="32.7798">aws_backup_plan</text></g><!--class aws_backup_recovery_point--><g id="elem_aws_backup_recovery_point"><rect codeLine="29" fill="#3D176E" height="39.7891" id="aws_backup_recovery_point" rx="2.5" ry="2.5" style="stroke:#000D19;stroke-width:0.5;" width="276" x="7" y="306.37"/><ellipse cx="22" cy="326.2645" fill="#ADD1B2" rx="11" ry="11" style="stroke:#181818;stroke-width:1.0;"/><path d="M24.9688,331.9052 Q24.3906,332.202 23.75,332.3427 Q23.1094,332.4989 22.4063,332.4989 Q19.9063,332.4989 18.5781,330.8583 Q17.2656,329.202 17.2656,326.077 Q17.2656,322.952 18.5781,321.2958 Q19.9063,319.6395 22.4063,319.6395 Q23.1094,319.6395 23.75,319.7958 Q24.4063,319.952 24.9688,320.2489 L24.9688,322.9677 Q24.3438,322.3895 23.75,322.1239 Q23.1563,321.8427 22.5313,321.8427 Q21.1875,321.8427 20.5,322.9208 Q19.8125,323.9833 19.8125,326.077 Q19.8125,328.1708 20.5,329.2489 Q21.1875,330.3114 22.5313,330.3114 Q23.1563,330.3114 23.75,330.0458 Q24.3438,329.7645 24.9688,329.1864 L24.9688,331.9052 Z " fill="#000000"/><text fill="#D9B8FF" font-family="Helvetica" font-size="17" lengthAdjust="spacing" textLength="234" x="41" y="332.1498">aws_backup_recovery_point</text></g><!--class aws_backup_vault--><g id="elem_aws_backup_vault"><rect codeLine="32" fill="#3D176E" height="39.7891" id="aws_backup_vault" rx="2.5" ry="2.5" style="stroke:#000D19;stroke-width:0.5;" width="195" x="47.5" y="206.58"/><ellipse cx="62.5" cy="226.4745" fill="#ADD1B2" rx="11" ry="11" style="stroke:#181818;stroke-width:1.0;"/><path d="M65.4688,232.1152 Q64.8906,232.412 64.25,232.5527 Q63.6094,232.7089 62.9063,232.7089 Q60.4063,232.7089 59.0781,231.0683 Q57.7656,229.412 57.7656,226.287 Q57.7656,223.162 59.0781,221.5058 Q60.4063,219.8495 62.9063,219.8495 Q63.6094,219.8495 64.25,220.0058 Q64.9063,220.162 65.4688,220.4589 L65.4688,223.1777 Q64.8438,222.5995 64.25,222.3339 Q63.6563,222.0527 63.0313,222.0527 Q61.6875,222.0527 61,223.1308 Q60.3125,224.1933 60.3125,226.287 Q60.3125,228.3808 61,229.4589 Q61.6875,230.5214 63.0313,230.5214 Q63.6563,230.5214 64.25,230.2558 Q64.8438,229.9745 65.4688,229.3964 L65.4688,232.1152 Z " fill="#000000"/><text fill="#D9B8FF" font-family="Helvetica" font-size="17" lengthAdjust="spacing" textLength="153" x="81.5" y="232.3598">aws_backup_vault</text></g><!--link aws_backup_copy_job to aws_backup_recovery_point--><g id="link_aws_backup_copy_job_aws_backup_recovery_point"><path codeLine="35" d="M93.55,146.9 C57.1,168.87 9.22,206.92 30,246.37 C44.27,273.47 67.1894,290.296 92.1194,303.176 " fill="none" id="aws_backup_copy_job-to-aws_backup_recovery_point" style="stroke:#1A83AF;stroke-width:2.0;"/><polygon fill="#1A83AF" points="97.45,305.93,91.2901,298.2452,93.0078,303.635,87.6181,305.3527,97.45,305.93" style="stroke:#1A83AF;stroke-width:2.0;"/></g><!--link aws_backup_copy_job to aws_backup_vault--><g id="link_aws_backup_copy_job_aws_backup_vault"><path codeLine="36" d="M132.96,147.01 C135.59,164.15 138.5,183.1294 141.13,200.2694 " fill="none" id="aws_backup_copy_job-to-aws_backup_vault" style="stroke:#1A83AF;stroke-width:2.0;"/><polygon fill="#1A83AF" points="142.04,206.2,144.6287,196.6974,141.2817,201.2578,136.7213,197.9108,142.04,206.2" style="stroke:#1A83AF;stroke-width:2.0;"/></g><!--link aws_backup_plan to aws_backup_copy_job--><g id="link_aws_backup_plan_aws_backup_copy_job"><path codeLine="37" d="M195.8,47.22 C181.42,64.36 164.3846,84.6819 150.0246,101.8119 " fill="none" id="aws_backup_plan-to-aws_backup_copy_job" style="stroke:#1A83AF;stroke-width:2.0;"/><polygon fill="#1A83AF" points="146.17,106.41,155.0172,102.0826,149.3821,102.5783,148.8864,96.9432,146.17,106.41" style="stroke:#1A83AF;stroke-width:2.0;"/></g><!--link aws_backup_plan to aws_backup_recovery_point--><g id="link_aws_backup_plan_aws_backup_recovery_point"><path codeLine="38" d="M227.32,46.98 C238.5,62.18 252.75,84.54 259,106.79 C275.77,166.52 288.91,191.48 260,246.37 C245.73,273.47 222.8106,290.296 197.8806,303.176 " fill="none" id="aws_backup_plan-to-aws_backup_recovery_point" style="stroke:#1A83AF;stroke-width:2.0;"/><polygon fill="#1A83AF" points="192.55,305.93,202.3819,305.3527,196.9922,303.635,198.7099,298.2452,192.55,305.93" style="stroke:#1A83AF;stroke-width:2.0;"/></g><!--link aws_backup_vault to aws_backup_recovery_point--><g id="link_aws_backup_vault_aws_backup_recovery_point"><path codeLine="39" d="M145,246.8 C145,263.94 145,282.85 145,299.99 " fill="none" id="aws_backup_vault-to-aws_backup_recovery_point" style="stroke:#1A83AF;stroke-width:2.0;"/><polygon fill="#1A83AF" points="145,305.99,149,296.99,145,300.99,141,296.99,145,305.99" style="stroke:#1A83AF;stroke-width:2.0;"/></g><!--SRC=[bP1FJy904CNl_HIRS2QX4WKk9fM4w8KOyMPCC-tEmagxkvdTGghnkyjVixOiu7NUR-QzDml9aM5fNCrAB3Ca6zcbL0O8IfOGwVLO5vfOHmWG_K5Jd6ZbBW9JA94zOh529tDe4gyBcIyLMijkFEa1ykMSTANu_hmZK7OZeN8UDIx0siGvabdbq0l3HzbGY2RPFDhfytXmXorC4qSw8BrUZyUZ9dBHwcplNs8cFv75_jEcsc4hPijYHvrDkIMyaAsYHpsOyHaubshERhtPopuJAQG_yza2k5vlQG65zMsiGqBjQeFZLYiS3RaOd8IVGd2KRr_7O6tJR8DK9isrgTCFdR6lAFfkowO05P08Sxr2gbEZfN81Q0LLST1EcNRVEd4ox2UJz-vz-FQ_LdUEKRD2Y3wUkteXd6nVzSgz7m00]--></g></svg>

<svg xmlns="http://www.w3.org/2000/svg" width="313" height="352" viewBox="0 0 313 352"><rect width="224" height="39.789" x="18" y="106.79" fill="#3D176E" rx="2.5" ry="2.5" style="stroke:#000d19;stroke-width:.5"/><circle cx="33" cy="126.684" r="11" fill="#ADD1B2" style="stroke:#181818;stroke-width:1"/><path d="M35.969 132.325q-.578.297-1.219.438-.64.156-1.344.156-2.5 0-3.828-1.64-1.312-1.657-1.312-4.782t1.312-4.781q1.328-1.656 3.828-1.656.703 0 1.344.156.656.156 1.219.453v2.719q-.625-.579-1.219-.844-.594-.281-1.219-.281-1.343 0-2.031 1.078-.687 1.062-.687 3.156t.687 3.172q.688 1.062 2.031 1.062.625 0 1.219-.265.594-.281 1.219-.86z"/><text x="52" y="132.57" fill="#D9B8FF" font-family="Helvetica" font-size="17" textLength="182">aws_backup_copy_job</text><rect width="188" height="39.789" x="118" y="7" fill="#3D176E" rx="2.5" ry="2.5" style="stroke:#000d19;stroke-width:.5"/><circle cx="133" cy="26.895" r="11" fill="#ADD1B2" style="stroke:#181818;stroke-width:1"/><path d="M135.969 32.535q-.578.297-1.219.438-.64.156-1.344.156-2.5 0-3.828-1.64-1.312-1.657-1.312-4.782t1.312-4.781q1.328-1.656 3.828-1.656.703 0 1.344.156.656.156 1.219.453v2.719q-.625-.578-1.219-.844-.594-.281-1.219-.281-1.344 0-2.031 1.078-.687 1.062-.687 3.156t.687 3.172q.688 1.062 2.031 1.062.625 0 1.219-.265.594-.281 1.219-.86z"/><text x="152" y="32.78" fill="#D9B8FF" font-family="Helvetica" font-size="17" textLength="146">aws_backup_plan</text><rect width="276" height="39.789" x="7" y="306.37" fill="#3D176E" rx="2.5" ry="2.5" style="stroke:#000d19;stroke-width:.5"/><circle cx="22" cy="326.264" r="11" fill="#ADD1B2" style="stroke:#181818;stroke-width:1"/><path d="M24.969 331.905q-.578.297-1.219.438-.64.156-1.344.156-2.5 0-3.828-1.64-1.312-1.657-1.312-4.782t1.312-4.781q1.328-1.656 3.828-1.656.703 0 1.344.156.656.156 1.219.453v2.719q-.625-.579-1.219-.844-.594-.281-1.219-.281-1.343 0-2.031 1.078-.687 1.062-.687 3.156t.687 3.172q.688 1.062 2.031 1.062.625 0 1.219-.265.594-.281 1.219-.86z"/><text x="41" y="332.15" fill="#D9B8FF" font-family="Helvetica" font-size="17" textLength="234">aws_backup_recovery_point</text><rect width="195" height="39.789" x="47.5" y="206.58" fill="#3D176E" rx="2.5" ry="2.5" style="stroke:#000d19;stroke-width:.5"/><circle cx="62.5" cy="226.475" r="11" fill="#ADD1B2" style="stroke:#181818;stroke-width:1"/><path d="M65.469 232.115q-.578.297-1.219.438-.64.156-1.344.156-2.5 0-3.828-1.64-1.312-1.657-1.312-4.782t1.312-4.781q1.328-1.656 3.828-1.656.703 0 1.344.156.656.156 1.219.453v2.719q-.625-.578-1.219-.844-.594-.281-1.219-.281-1.343 0-2.031 1.078-.687 1.062-.687 3.156t.687 3.172q.688 1.062 2.031 1.062.625 0 1.219-.265.594-.281 1.219-.86z"/><text x="81.5" y="232.36" fill="#D9B8FF" font-family="Helvetica" font-size="17" textLength="153">aws_backup_vault</text><path fill="none" d="M93.55 146.9C57.1 168.87 9.22 206.92 30 246.37c14.27 27.1 37.19 43.926 62.12 56.806" style="stroke:#1a83af;stroke-width:2"/><path fill="#1A83AF" d="m97.45 305.93-6.16-7.685 1.718 5.39-5.39 1.718z" style="stroke:#1a83af;stroke-width:2"/><path fill="none" d="m132.96 147.01 8.17 53.26" style="stroke:#1a83af;stroke-width:2"/><path fill="#1A83AF" d="m142.04 206.2 2.589-9.503-3.347 4.56-4.56-3.346z" style="stroke:#1a83af;stroke-width:2"/><path fill="none" d="M195.8 47.22c-14.38 17.14-31.415 37.462-45.775 54.592" style="stroke:#1a83af;stroke-width:2"/><path fill="#1A83AF" d="m146.17 106.41 8.847-4.327-5.635.495-.496-5.635z" style="stroke:#1a83af;stroke-width:2"/><path fill="none" d="M227.32 46.98c11.18 15.2 25.43 37.56 31.68 59.81 16.77 59.73 29.91 84.69 1 139.58-14.27 27.1-37.19 43.926-62.12 56.806" style="stroke:#1a83af;stroke-width:2"/><path fill="#1A83AF" d="m192.55 305.93 9.832-.577-5.39-1.718 1.718-5.39z" style="stroke:#1a83af;stroke-width:2"/><path fill="none" d="M145 246.8v53.19" style="stroke:#1a83af;stroke-width:2"/><path fill="#1A83AF" d="m145 305.99 4-9-4 4-4-4z" style="stroke:#1a83af;stroke-width:2"/></svg>
